src/ui/folder.svg

<?xml version="1.0" encoding="UTF-8"?><svg xmlns="http://www.w3.org/2000/svg" width="32" height="32" viewBox="0 0 32 32"><defs><style>.uuid-b008a1fc-1a33-432b-8f76-6f7ce5d39b22{fill:none;}.uuid-fedd0d5c-0afe-43ec-92b1-2a5e42b74f36{fill:#151515;}</style></defs><g id="uuid-ab97ccba-5d7b-4a7d-8c93-19e8adcabc63"><rect class="uuid-b008a1fc-1a33-432b-8f76-6f7ce5d39b22" width="32" height="32"/></g><g id="uuid-1e5e55c4-312d-4fa8-90e5-898a0c5b6786"><path class="uuid-fedd0d5c-0afe-43ec-92b1-2a5e42b74f36" d="M29.5,8h-11.69043l-.68066-3.20801c-.09863-.46191-.50586-.79199-.97852-.79199H6.84961c-.47266,0-.87988.33008-.97852.79199l-.68066,3.20801h-2.69043c-.82715,0-1.5.67285-1.5,1.5v17c0,.82715.67285,1.5,1.5,1.5h27c.82715,0,1.5-.67285,1.5-1.5V9.5c0-.82715-.67285-1.5-1.5-1.5ZM29,26H3V10h3c.47266,0,.87988-.33008.97852-.79199l.68066-3.20801h7.68164l.68066,3.20801c.09863.46191.50586.79199.97852.79199h12v16Z"/></g></svg>

<svg xmlns="http://www.w3.org/2000/svg" viewBox="0 0 32 32">
  <path d="M29.5 8H17.81l-.681-3.208A1 1 0 0 0 16.15 4h-9.3a1 1 0 0 0-.979.792L5.19 8H2.5C1.673 8 1 8.673 1 9.5v17c0 .827.673 1.5 1.5 1.5h27c.827 0 1.5-.673 1.5-1.5v-17c0-.827-.673-1.5-1.5-1.5ZM29 26H3V10h3a1 1 0 0 0 .979-.792L7.66 6h7.682l.681 3.208a1 1 0 0 0 .979.792h12v16Z"/>
</svg>
